fs/checkbox_person_24_regular.svg

<svg viewBox="0 0 24 24" fill="none" xmlns="http://www.w3.org/2000/svg" height="1em" width="1em">
  <path d="M6.25 3C4.45507 3 3 4.45507 3 6.25V17.75C3 19.5449 4.45507 21 6.25 21H13.1718C13.0562 20.6334 13 20.2541 13 19.875V19.772C13 19.6802 13.0045 19.5895 13.0132 19.5H6.25C5.2835 19.5 4.5 18.7165 4.5 17.75V6.25C4.5 5.2835 5.2835 4.5 6.25 4.5H17.75C18.7165 4.5 19.5 5.2835 19.5 6.25V11.1449C20.0762 11.3164 20.5901 11.6323 21 12.0505V6.25C21 4.45507 19.5449 3 17.75 3H6.25ZM17.28 9.28064C17.5731 8.98791 17.5734 8.51304 17.2806 8.21998C16.9879 7.92691 16.513 7.92664 16.22 8.21936L9.99658 14.4356L7.78084 12.2197C7.48795 11.9268 7.01308 11.9268 6.72018 12.2196C6.42727 12.5125 6.42726 12.9874 6.72014 13.2803L9.46591 16.0262C9.75868 16.319 10.2333 16.3192 10.5263 16.0266L17.28 9.28064ZM21 14.5C21 15.8807 19.8807 17 18.5 17C17.1193 17 16 15.8807 16 14.5C16 13.1193 17.1193 12 18.5 12C19.8807 12 21 13.1193 21 14.5ZM23 19.875C23 21.4315 21.7143 23 18.5 23C15.2857 23 14 21.4374 14 19.875V19.772C14 18.7929 14.7937 18 15.7727 18H21.2273C22.2063 18 23 18.793 23 19.772V19.875Z" fill="#212121"/>
</svg>

<svg viewBox="0 0 24 24" fill="none" xmlns="http://www.w3.org/2000/svg" height="1em" width="1em">
  <path d="M6.25 3A3.25 3.25 0 0 0 3 6.25v11.5A3.25 3.25 0 0 0 6.25 21h6.922A3.738 3.738 0 0 1 13 19.875v-.103c0-.092.005-.182.013-.272H6.25a1.75 1.75 0 0 1-1.75-1.75V6.25c0-.966.784-1.75 1.75-1.75h11.5c.966 0 1.75.784 1.75 1.75v4.895a3.5 3.5 0 0 1 1.5.905v-5.8A3.25 3.25 0 0 0 17.75 3H6.25Zm11.03 6.28a.75.75 0 1 0-1.06-1.06l-6.223 6.216L7.78 12.22a.75.75 0 0 0-1.06 1.06l2.745 2.746a.75.75 0 0 0 1.06 0l6.754-6.745ZM21 14.5a2.5 2.5 0 1 1-5 0 2.5 2.5 0 0 1 5 0Zm2 5.375C23 21.431 21.714 23 18.5 23S14 21.437 14 19.875v-.103c0-.98.794-1.772 1.773-1.772h5.454c.98 0 1.773.793 1.773 1.772v.103Z" fill="#212121"/>
</svg>
